static/assets/images/products/guard/guard-community-icon.svg

<svg width="64" height="64" viewBox="0 0 64 64" fill="none" xmlns="http://www.w3.org/2000/svg">
<path d="M6.66219 58.8078C6.57773 59.6931 6.2476 60.3846 5.67178 60.8824C5.09597 61.3763 4.33013 61.6233 3.37428 61.6233C2.70633 61.6233 2.11708 61.4675 1.60653 61.156C1.09981 60.8406 0.708253 60.3941 0.431862 59.8166C0.15547 59.239 0.0115163 58.5684 0 57.8047V57.0295C0 56.2468 0.140115 55.5572 0.420345 54.9606C0.700576 54.3641 1.10173 53.9043 1.6238 53.5813C2.14971 53.2584 2.75624 53.0969 3.44338 53.0969C4.36852 53.0969 5.11324 53.3458 5.67754 53.8435C6.24184 54.3413 6.57006 55.0442 6.66219 55.9523H5.21113C5.14203 55.3558 4.96545 54.9264 4.68138 54.6642C4.40115 54.3983 3.98848 54.2653 3.44338 54.2653C2.80998 54.2653 2.32246 54.4952 1.98081 54.9549C1.64299 55.4109 1.47025 56.0815 1.46257 56.9668V57.7021C1.46257 58.5988 1.6238 59.2827 1.94626 59.7539C2.27255 60.225 2.74856 60.4606 3.37428 60.4606C3.94626 60.4606 4.3762 60.3333 4.66411 60.0788C4.95202 59.8242 5.13436 59.4005 5.21113 58.8078H6.66219Z" fill="#00A651"/>
<path d="M8.06334 58.3689C8.06334 57.7648 8.18426 57.2214 8.4261 56.7389C8.66795 56.2525 9.00768 55.8801 9.4453 55.6218C9.88292 55.3596 10.3858 55.2285 10.9539 55.2285C11.7946 55.2285 12.476 55.4964 12.9981 56.0321C13.524 56.5679 13.8081 57.2784 13.8503 58.1637L13.856 58.4886C13.856 59.0965 13.737 59.6399 13.499 60.1187C13.2649 60.5974 12.9271 60.9679 12.4856 61.2301C12.048 61.4922 11.5413 61.6233 10.9655 61.6233C10.0864 61.6233 9.38196 61.3345 8.85221 60.757C8.3263 60.1756 8.06334 59.4024 8.06334 58.4373V58.3689ZM9.46257 58.4886C9.46257 59.1231 9.59501 59.6209 9.85988 59.9819C10.1248 60.339 10.4933 60.5176 10.9655 60.5176C11.4376 60.5176 11.8042 60.3352 12.0653 59.9705C12.3301 59.6057 12.4626 59.0718 12.4626 58.3689C12.4626 57.7458 12.3263 57.2518 12.0537 56.887C11.785 56.5223 11.4184 56.3399 10.9539 56.3399C10.4971 56.3399 10.1344 56.5204 9.86564 56.8813C9.59693 57.2385 9.46257 57.7743 9.46257 58.4886Z" fill="#00A651"/>
<path d="M16.8464 55.3425L16.8868 55.9865C17.3244 55.4812 17.9232 55.2285 18.6833 55.2285C19.5163 55.2285 20.0864 55.5439 20.3935 56.1746C20.8464 55.5439 21.4837 55.2285 22.3052 55.2285C22.9923 55.2285 23.5029 55.4166 23.8369 55.7927C24.1747 56.1689 24.3474 56.7237 24.3551 57.457V61.5093H22.9559V57.4969C22.9559 57.1055 22.8695 56.8187 22.6967 56.6363C22.524 56.4539 22.238 56.3627 21.8388 56.3627C21.5202 56.3627 21.2591 56.4482 21.0557 56.6192C20.856 56.7864 20.7159 57.0067 20.6353 57.2803L20.6411 61.5093H19.2418V57.4513C19.2226 56.7256 18.8484 56.3627 18.119 56.3627C17.5585 56.3627 17.1612 56.5888 16.9271 57.0409V61.5093H15.5278V55.3425H16.8464Z" fill="#00A651"/>
<path d="M27.5988 55.3425L27.6392 55.9865C28.0768 55.4812 28.6756 55.2285 29.4357 55.2285C30.2687 55.2285 30.8388 55.5439 31.1459 56.1746C31.5988 55.5439 32.2361 55.2285 33.0576 55.2285C33.7447 55.2285 34.2553 55.4166 34.5893 55.7927C34.9271 56.1689 35.0998 56.7237 35.1075 57.457V61.5093H33.7083V57.4969C33.7083 57.1055 33.6219 56.8187 33.4491 56.6363C33.2764 56.4539 32.9904 56.3627 32.5912 56.3627C32.2726 56.3627 32.0115 56.4482 31.8081 56.6192C31.6084 56.7864 31.4683 57.0067 31.3877 57.2803L31.3935 61.5093H29.9942V57.4513C29.975 56.7256 29.6008 56.3627 28.8714 56.3627C28.3109 56.3627 27.9136 56.5888 27.6795 57.0409V61.5093H26.2802V55.3425H27.5988Z" fill="#00A651"/>
<path d="M40.81 60.9052C40.3992 61.3839 39.8157 61.6233 39.0595 61.6233C38.3839 61.6233 37.8714 61.4276 37.5221 61.0363C37.1766 60.6449 37.0038 60.0788 37.0038 59.3378V55.3425H38.4031V59.3207C38.4031 60.1035 38.7313 60.4948 39.3877 60.4948C40.0672 60.4948 40.5259 60.2535 40.7639 59.771V55.3425H42.1631V61.5093H40.8445L40.81 60.9052Z" fill="#00A651"/>
<path d="M45.3781 55.3425L45.4184 56.0549C45.8791 55.504 46.4837 55.2285 47.2322 55.2285C48.5297 55.2285 49.19 55.9637 49.2131 57.4342V61.5093H47.8138V57.514C47.8138 57.1226 47.7274 56.8339 47.5547 56.6477C47.3858 56.4577 47.1075 56.3627 46.7198 56.3627C46.1555 56.3627 45.7351 56.6154 45.4587 57.1207V61.5093H44.0595V55.3425H45.3781Z" fill="#00A651"/>
<path d="M52.6238 61.5093H51.2246V55.3425H52.6238V61.5093ZM51.1382 53.7409C51.1382 53.5282 51.2054 53.3515 51.3397 53.2109C51.4779 53.0703 51.6737 53 51.9271 53C52.1804 53 52.3762 53.0703 52.5144 53.2109C52.6526 53.3515 52.7217 53.5282 52.7217 53.7409C52.7217 53.9499 52.6526 54.1247 52.5144 54.2653C52.3762 54.4021 52.1804 54.4705 51.9271 54.4705C51.6737 54.4705 51.4779 54.4021 51.3397 54.2653C51.2054 54.1247 51.1382 53.9499 51.1382 53.7409Z" fill="#00A651"/>
<path d="M56.3973 53.8435V55.3425H57.4971V56.3684H56.3973V59.8109C56.3973 60.0465 56.4434 60.2174 56.5355 60.3238C56.6315 60.4264 56.8004 60.4777 57.0422 60.4777C57.2035 60.4777 57.3666 60.4587 57.5317 60.4207V61.4922C57.2131 61.5796 56.9059 61.6233 56.6104 61.6233C55.5355 61.6233 54.9981 61.0363 54.9981 59.8622V56.3684H53.9731V55.3425H54.9981V53.8435H56.3973Z" fill="#00A651"/>
<path d="M61.2418 59.5259L62.5086 55.3425H64L61.524 62.444C61.144 63.4813 60.499 64 59.5892 64C59.3858 64 59.1612 63.9658 58.9155 63.8974V62.8259L59.1804 62.843C59.5336 62.843 59.7985 62.7784 59.975 62.6492C60.1555 62.5238 60.2975 62.3111 60.4011 62.0109L60.6027 61.4808L58.4146 55.3425H59.9232L61.2418 59.5259Z" fill="#00A651"/>
<path d="M30.1118 0.317696L13.8411 8.1548C13.4054 8.36416 13.0224 8.66913 12.7209 9.04699C12.4193 9.42486 12.2069 9.86589 12.0994 10.3372L8.08118 27.9455C7.97322 28.4167 7.97294 28.9063 8.08034 29.3777C8.18774 29.8491 8.40007 30.2902 8.70153 30.6682L19.9618 44.7874C20.2632 45.1655 20.646 45.4709 21.0816 45.6808C21.5173 45.8907 21.9946 45.9998 22.4782 46H40.5384C41.022 46 41.4994 45.891 41.9351 45.6811C42.3708 45.4711 42.7535 45.1657 43.0548 44.7874L54.3151 30.6682C54.6159 30.2899 54.828 29.8488 54.9356 29.3776C55.0432 28.9063 55.0436 28.4169 54.9368 27.9455L50.9186 10.3372C50.8108 9.866 50.5983 9.42511 50.2968 9.04728C49.9952 8.66946 49.6125 8.36441 49.1769 8.1548L32.9048 0.317696C32.4689 0.10857 31.9917 0 31.5083 0C31.0249 0 30.5476 0.10857 30.1118 0.317696V0.317696Z" fill="#DBE1EE"/>
<path fill-rule="evenodd" clip-rule="evenodd" d="M19.4707 17.7953L21.8272 33.2338C22.0826 34.9306 23.371 36.3467 24.5092 37.6295C26.4264 39.8105 28.9934 41.3235 31.632 42.7915C31.7484 42.8678 31.8849 42.9078 32.0241 42.9063C32.1633 42.9048 32.2989 42.8619 32.4137 42.7831C35.034 41.2968 37.6066 39.8021 39.528 37.6295C40.662 36.3467 41.9448 34.9306 42.2087 33.2338L44.5652 17.7953C41.9813 17.2179 39.3609 16.8179 36.7224 16.5981C37.1359 17.0917 37.4902 17.632 37.7779 18.2079C39.4826 18.3839 41.1795 18.6388 42.8683 18.9729L40.7238 33.0148C40.5217 34.3257 39.2543 35.6702 38.3926 36.647C36.6691 38.5993 34.2776 40.0056 32.0095 41.2786C29.7415 40.0154 27.3583 38.5979 25.6348 36.647C24.7815 35.6646 23.5156 34.3257 23.3135 33.0148L21.1675 18.9729C22.8517 18.6388 24.5457 18.3839 26.2496 18.2079C26.5372 17.6296 26.8949 17.0889 27.3148 16.5981C24.6757 16.8165 22.0548 17.2165 19.4707 17.7953V17.7953Z" fill="#3CAD5C"/>
<path fill-rule="evenodd" clip-rule="evenodd" d="M34.0317 34.4661C32.7095 34.817 31.319 34.8199 29.9953 34.4746C29.7932 35.196 29.5911 35.9258 29.389 36.6472C27.6655 34.2374 27.1434 33.4542 24.7378 31.7055C25.2206 28.1616 25.1687 25.0838 24.7462 21.5582L25.0887 21.54C25.8451 18.3119 27.2697 15.3772 30.5146 14.6909C30.6929 14.9987 30.8546 15.3159 30.9988 15.6411C28.4725 16.072 26.9188 18.1674 26.2269 21.0923C27.6781 21.1358 29.163 20.688 30.6844 20.3091C29.0002 21.4965 27.5111 22.4143 25.8662 22.5084C26.1797 25.4142 26.1618 28.3462 25.8129 31.2479C27.1504 32.2304 27.7778 32.6809 28.9791 34.3525C29.577 32.2234 30.3237 29.0192 30.0781 26.5701L27.3792 25.3069L27.5546 23.6368L26.9216 22.907L30.6325 24.4508L31.1602 24.1968L31.0198 24.6094C31.1595 25.7805 31.0776 26.9675 30.7784 28.1083L32.0177 29.2788L33.2486 28.1083C32.9687 26.9658 32.8884 25.7835 33.0114 24.6136L32.8626 24.201L33.3903 24.455L37.1096 22.9112L36.4668 23.641L36.6436 25.3112L33.9433 26.5743C33.6977 29.0276 34.4542 32.2276 35.0422 34.3567C36.238 32.6851 36.8668 32.2276 38.2169 31.2521C37.8616 28.3509 37.8409 25.4185 38.1552 22.5126C36.5117 22.4242 35.017 21.5007 33.337 20.3133C34.8584 20.6923 36.3447 21.14 37.7945 21.0965C37.1264 18.239 35.6317 16.1842 33.2135 15.6706C33.3637 15.3632 33.5307 15.0558 33.6977 14.7386C36.8134 15.4909 38.2001 18.3751 38.9383 21.54L39.2892 21.5582C38.8583 25.0838 38.8148 28.1546 39.2892 31.7055C36.8808 33.4542 36.3699 34.2318 34.638 36.6472C34.4359 35.9258 34.2338 35.196 34.0317 34.4661Z" fill="#0B1726"/>
<path fill-rule="evenodd" clip-rule="evenodd" d="M32.0178 9.22155C33.935 10.277 34.7616 11.7478 33.4957 13.9934C33.768 12.3162 33.2052 10.7345 32.0178 9.22155ZM32.0178 17.1878C31.7455 15.7632 31.0859 14.3808 29.9519 13.0292C30.2431 13.0064 30.5359 13.0429 30.8126 13.1365C31.0893 13.2301 31.3441 13.3789 31.5617 13.5738C30.822 12.5198 29.6445 11.877 27.1828 12.451C27.4368 11.9247 28.2368 11.5991 29.1785 11.3282C27.9294 11.0994 26.453 11.7226 24.5975 13.6482C21.8888 16.2334 20.025 15.4334 18.1864 14.545C20.1386 14.5983 21.2558 14.3078 21.9239 13.8432C19.0832 14.5562 17.0439 13.7562 15.9268 11.1977C18.6271 13.2019 21.2025 11.9626 23.726 9.324C26.2859 7.17806 28.6859 7.15279 30.9806 8.77944C28.2115 8.28682 26.6551 8.79629 25.8551 9.94013C28.4922 8.83137 30.655 8.73453 31.8241 10.8103C31.8311 10.4067 31.7048 10.0121 31.4648 9.6875C31.6585 9.87035 31.8352 10.0705 31.9925 10.2854C32.9596 11.6482 33.1967 13.7324 32.0178 17.1878V17.1878Z" fill="#D84E27"/>
</svg>

<svg xmlns="http://www.w3.org/2000/svg" width="64" height="64" fill="none" xmlns:v="https://vecta.io/nano"><path d="M6.662 58.808c-.084.885-.415 1.577-.99 2.075s-1.342.741-2.297.741c-.668 0-1.257-.156-1.768-.467s-.898-.762-1.175-1.339S.012 58.57 0 57.806v-.775c0-.783.14-1.472.42-2.069s.681-1.056 1.203-1.379 1.132-.484 1.82-.484c.925 0 1.67.249 2.234.747s.893 1.201.985 2.109H5.211c-.069-.596-.246-1.026-.53-1.288s-.693-.399-1.238-.399c-.633 0-1.121.23-1.463.69s-.511 1.127-.518 2.012v.735c0 .897.161 1.581.484 2.052s.802.707 1.428.707c.572 0 1.002-.127 1.29-.382s.47-.678.547-1.271h1.451zm1.401-.439c0-.604.121-1.147.363-1.63a2.61 2.61 0 0 1 1.019-1.117c.438-.262.941-.393 1.509-.393.841 0 1.522.268 2.044.804s.81 1.246.852 2.132l.006.325c0 .608-.119 1.151-.357 1.63s-.572.849-1.013 1.111-.944.393-1.52.393c-.879 0-1.584-.289-2.113-.866s-.789-1.355-.789-2.32v-.068zm1.399.12c0 .635.132 1.132.397 1.493s.633.536 1.106.536.839-.182 1.1-.547.397-.899.397-1.602c0-.623-.136-1.117-.409-1.482a1.29 1.29 0 0 0-1.1-.547c-.457 0-.82.181-1.088.541s-.403.893-.403 1.607zm7.384-3.146l.04.644c.438-.505 1.036-.758 1.796-.758.833 0 1.403.315 1.71.946.453-.631 1.09-.946 1.912-.946.687 0 1.198.188 1.532.564s.511.931.518 1.664v4.052h-1.399v-4.012c0-.391-.086-.678-.259-.861s-.459-.274-.858-.274c-.319 0-.58.086-.783.257a1.32 1.32 0 0 0-.42.661l.006 4.229h-1.399v-4.058c-.019-.726-.393-1.089-1.123-1.089-.561 0-.958.226-1.192.678v4.468h-1.399v-6.167h1.319zm10.753 0l.04.644c.438-.505 1.036-.758 1.797-.758.833 0 1.403.315 1.71.946.453-.631 1.09-.946 1.912-.946.687 0 1.198.188 1.532.564s.511.931.518 1.664v4.052h-1.399v-4.012c0-.391-.086-.678-.259-.861s-.459-.274-.858-.274c-.319 0-.58.086-.783.257a1.32 1.32 0 0 0-.42.661l.006 4.229h-1.399v-4.058c-.019-.726-.393-1.089-1.123-1.089-.561 0-.958.226-1.192.678v4.468H26.28v-6.167h1.319zm13.211 5.562c-.411.479-.994.718-1.751.718-.676 0-1.188-.196-1.537-.587s-.518-.957-.518-1.698v-3.995h1.399v3.978c0 .783.328 1.174.985 1.174.679 0 1.138-.241 1.376-.724v-4.428h1.399v6.167h-1.319l-.034-.604zm4.568-5.562l.04.712c.461-.551 1.065-.826 1.814-.826 1.297 0 1.958.735 1.981 2.206v4.075h-1.399v-3.995c0-.391-.086-.68-.259-.866s-.447-.285-.835-.285c-.564 0-.985.253-1.261.758v4.389H44.06v-6.167h1.319zm7.246 6.166h-1.399v-6.167h1.399v6.167zm-1.486-7.768c0-.213.067-.389.202-.53s.334-.211.587-.211.449.07.587.211.207.317.207.53a.71.71 0 0 1-.207.524c-.138.14-.334.205-.587.205s-.449-.068-.587-.205a.73.73 0 0 1-.202-.524zm5.259.103v1.499h1.1v1.026h-1.1v3.442c0 .236.046.407.138.513s.265.154.507.154c.161 0 .324-.019.489-.057v1.072a3.48 3.48 0 0 1-.921.131c-1.075 0-1.612-.587-1.612-1.761v-3.494h-1.025v-1.026h1.025v-1.499h1.399zm4.845 5.682l1.267-4.183H64l-2.476 7.102C61.144 63.481 60.499 64 59.589 64a2.53 2.53 0 0 1-.674-.103v-1.072l.265.017c.353 0 .618-.065.795-.194s.322-.338.426-.638l.202-.53-2.188-6.138h1.509l1.319 4.183z" fill="#00a651"/><path d="M30.112.318L13.841 8.155c-.436.209-.819.514-1.12.892s-.514.819-.622 1.29L8.081 27.946c-.108.471-.108.961-.001 1.432s.32.912.621 1.29l11.26 14.119A3.22 3.22 0 0 0 22.478 46h18.06a3.22 3.22 0 0 0 1.397-.319c.436-.21.818-.515 1.12-.894l11.26-14.119a3.23 3.23 0 0 0 .622-2.723l-4.018-17.608a3.22 3.22 0 0 0-1.742-2.182L32.905.318A3.23 3.23 0 0 0 31.508 0a3.23 3.23 0 0 0-1.396.318h0z" fill="#dbe1ee"/><g fill-rule="evenodd"><path d="M19.471 17.795l2.357 15.439c.255 1.697 1.544 3.113 2.682 4.396 1.917 2.181 4.484 3.694 7.123 5.162a.7.7 0 0 0 .782-.008c2.62-1.486 5.193-2.981 7.114-5.154 1.134-1.283 2.417-2.699 2.681-4.396l2.356-15.439c-2.584-.577-5.204-.977-7.843-1.197.413.494.768 1.034 1.056 1.61l5.09.765-2.145 14.042c-.202 1.311-1.469 2.655-2.331 3.632-1.724 1.952-4.115 3.359-6.383 4.632-2.268-1.263-4.651-2.681-6.375-4.632-.853-.982-2.119-2.321-2.321-3.632l-2.146-14.042 5.082-.765a7.86 7.86 0 0 1 1.065-1.61c-2.639.218-5.26.618-7.844 1.197h0z" fill="#3cad5c"/><path d="M34.032 34.466a7.93 7.93 0 0 1-4.036.009l-.606 2.173c-1.723-2.41-2.246-3.193-4.651-4.942.483-3.544.431-6.622.008-10.147l.342-.018c.756-3.228 2.181-6.163 5.426-6.849a9.91 9.91 0 0 1 .484.95c-2.526.431-4.08 2.526-4.772 5.451 1.451.043 2.936-.404 4.458-.783-1.684 1.187-3.173 2.105-4.818 2.199a38.56 38.56 0 0 1-.053 8.74c1.338.983 1.965 1.433 3.166 3.105.598-2.129 1.345-5.333 1.099-7.782l-2.699-1.263.175-1.67-.633-.73 3.711 1.544.528-.254-.14.413a9.4 9.4 0 0 1-.241 3.499l1.239 1.171 1.231-1.171c-.28-1.142-.36-2.325-.237-3.495l-.149-.413.528.254 3.719-1.544-.643.73.177 1.67-2.7 1.263c-.246 2.453.511 5.653 1.099 7.782 1.196-1.672 1.825-2.129 3.175-3.105a38.15 38.15 0 0 1-.062-8.739c-1.644-.088-3.138-1.012-4.818-2.199 1.521.379 3.008.827 4.457.783-.668-2.857-2.163-4.912-4.581-5.426.15-.307.317-.615.484-.932 3.116.752 4.502 3.637 5.241 6.801l.351.018c-.431 3.526-.474 6.596 0 10.147-2.408 1.749-2.919 2.526-4.651 4.942l-.606-2.181z" fill="#0b1726"/><path d="M32.018 9.222c1.917 1.055 2.744 2.526 1.478 4.772.272-1.677-.291-3.259-1.478-4.772zm0 7.966c-.272-1.425-.932-2.807-2.066-4.159a2.16 2.16 0 0 1 1.61.545c-.74-1.054-1.917-1.697-4.379-1.123.254-.526 1.054-.852 1.996-1.123-1.249-.229-2.726.394-4.581 2.32-2.709 2.585-4.573 1.785-6.411.897 1.952.053 3.069-.237 3.738-.702-2.841.713-4.88-.087-5.997-2.645 2.7 2.004 5.276.765 7.799-1.874 2.56-2.146 4.96-2.171 7.255-.545-2.769-.493-4.325.017-5.125 1.161 2.637-1.109 4.8-1.206 5.969.87.007-.404-.119-.798-.359-1.123a4.38 4.38 0 0 1 .528.598c.967 1.363 1.204 3.447.025 6.902h0z" fill="#d84e27"/></g></svg>
